X: 7713
T:Reinl\"ander e. Ornun Egland
R:Reinl\"ander
O:Norway
M:4/4
K:DMix
D>EFG A2cA| B>AAF D2DF| E2C2 C2EG| F2D2 D4:|
|:d2dd d2ed| c2A2 A3B| A>GFE F>G Ad| ^c2AA A3A|\
d2dd d2ed| c2A2 A3B| A>GFE F2DC| D2D2 D4:|
